public/images/blackstar.svg

<svg xmlns:xlink="http://www.w3.org/1999/xlink" xmlns="http://www.w3.org/2000/svg" width="30" height="30" viewBox="0 0 30 30" fill="none">
<circle cx="15" cy="15" r="14.5" stroke="#B0B4A8"/>
<g clip-path="url(#clip0)">
<path d="M20.9828 13.4931C20.9414 13.3694 20.8314 13.2792 20.699 13.2605L16.979 12.7351L15.3153 9.45837C15.2561 9.34172 15.1338 9.26788 15 9.26788C14.8662 9.26788 14.744 9.34172 14.6848 9.45837L13.021 12.7351L9.301 13.2605C9.16861 13.2792 9.05857 13.3694 9.01722 13.4931C8.97586 13.6168 9.01036 13.7526 9.10619 13.8434L11.7979 16.394L11.1626 19.9955C11.1399 20.1237 11.1942 20.2532 11.3024 20.3297C11.3637 20.3729 11.4362 20.395 11.5091 20.395C11.5651 20.395 11.6212 20.382 11.6727 20.3557L15 18.6553L18.3272 20.3557C18.4457 20.4162 18.5892 20.4061 18.6974 20.3297C18.8057 20.2532 18.86 20.1236 18.8373 19.9954L18.2018 16.394L20.8938 13.8434C20.9896 13.7526 21.0242 13.6168 20.9828 13.4931Z" fill="#353B2A"/>
</g>
<defs>
<clipPath id="clip0">
<rect width="12" height="11.6646" fill="white" transform="translate(9 9)"/>
</clipPath>
</defs>
</svg>

<svg xmlns="http://www.w3.org/2000/svg" width="30" height="30" fill="none"><circle cx="15" cy="15" r="14.5" stroke="#B0B4A8"/><g clip-path="url(#a)"><path fill="#353B2A" d="M20.983 13.493a.35.35 0 0 0-.284-.232l-3.72-.526-1.664-3.277a.35.35 0 0 0-.315-.19.35.35 0 0 0-.315.19l-1.664 3.277-3.72.526a.35.35 0 0 0-.284.232.34.34 0 0 0 .09.35l2.69 2.551-.634 3.602a.34.34 0 0 0 .14.334.36.36 0 0 0 .37.026l3.327-1.7 3.327 1.7a.36.36 0 0 0 .37-.026.34.34 0 0 0 .14-.335l-.635-3.601 2.692-2.55a.34.34 0 0 0 .089-.35"/></g><defs><clipPath id="a"><path fill="#fff" d="M9 9h12v11.665H9z"/></clipPath></defs></svg>
